SVG_Azure_Grouped/Compute/Azure Blockchain Service.svg

<?xml version="1.0" encoding="UTF-8" standalone="no"?>
<!-- Generated by Microsoft Visio, SVG Export Azure Blockchain Service.svg Page-1 -->

<svg
   xmlns:dc="http://purl.org/dc/elements/1.1/"
   xmlns:cc="http://creativecommons.org/ns#"
   xmlns:rdf="http://www.w3.org/1999/02/22-rdf-syntax-ns#"
   xmlns:svg="http://www.w3.org/2000/svg"
   xmlns="http://www.w3.org/2000/svg"
   xmlns:sodipodi="http://sodipodi.sourceforge.net/DTD/sodipodi-0.dtd"
   xmlns:inkscape="http://www.inkscape.org/namespaces/inkscape"
   width="0.78738457in"
   height="0.78747344in"
   viewBox="0 0 56.691597 56.698398"
   xml:space="preserve"
   class="st6"
   version="1.1"
   id="svg84"
   sodipodi:docname="Azure Blockchain Service.svg"
   style="font-size:12px;overflow:visible;color-interpolation-filters:sRGB;fill:none;fill-rule:evenodd;stroke-linecap:square;stroke-miterlimit:3"
   inkscape:version="0.92.5 (2060ec1f9f, 2020-04-08)"><metadata
   id="metadata90"><rdf:RDF><cc:Work
       rdf:about=""><dc:format>image/svg+xml</dc:format><dc:type
         rdf:resource="http://purl.org/dc/dcmitype/StillImage" /></cc:Work></rdf:RDF></metadata><defs
   id="defs88" /><sodipodi:namedview
   pagecolor="#ffffff"
   bordercolor="#666666"
   borderopacity="1"
   objecttolerance="10"
   gridtolerance="10"
   guidetolerance="10"
   inkscape:pageopacity="0"
   inkscape:pageshadow="2"
   inkscape:window-width="640"
   inkscape:window-height="480"
   id="namedview86"
   showgrid="false"
   inkscape:zoom="1.4193119"
   inkscape:cx="37.795128"
   inkscape:cy="37.786193"
   inkscape:window-x="0"
   inkscape:window-y="0"
   inkscape:window-maximized="0"
   inkscape:current-layer="svg84" />
	<style
   type="text/css"
   id="style2">
	<![CDATA[
		.st1 {fill:#773adc;stroke:none;stroke-linecap:butt;stroke-width:34}
		.st2 {fill:#552f99;stroke:none;stroke-linecap:butt;stroke-width:34}
		.st3 {fill:#a67af4;stroke:none;stroke-linecap:butt;stroke-width:34}
		.st4 {fill:#32bedd;stroke:none;stroke-linecap:butt;stroke-width:34}
		.st5 {fill:#b796f9;stroke:none;stroke-linecap:butt;stroke-width:34}
		.st6 {fill:none;fill-rule:evenodd;font-size:12px;overflow:visible;stroke-linecap:square;stroke-miterlimit:3}
	]]>
	</style>

	<g
   id="g82"
   transform="translate(-34.000441,-33.9959)">
		<title
   id="title4">Page-1</title>
		<g
   id="group11871-1"
   transform="translate(34,-34.0157)">
			<title
   id="title6">Azure Blockchain Service.11871</title>
			<g
   id="group11872-2">
				<title
   id="title8">Sheet.11872</title>
				<g
   id="shape11873-3"
   transform="translate(28.9134,-27.4238)">
					<title
   id="title10">Sheet.11873</title>
					<path
   d="m 12.44,102.76 v 14.63 L 0,124.71 v -14.64 z"
   class="st1"
   id="path12"
   inkscape:connector-curvature="0"
   style="fill:#773adc;stroke:none;stroke-width:34;stroke-linecap:butt" />
				</g>
				<g
   id="shape11874-5"
   transform="translate(32.9134,-33.7867)">
					<title
   id="title15">Sheet.11874</title>
					<path
   d="m 3.15,116.44 c 1.73,-1.02 3.15,-0.23 3.15,1.78 a 6.86614,6.9355 0 0 1 -3.15,5.47 C 1.42,124.71 0,123.91 0,121.88 a 6.83465,6.90368 0 0 1 3.15,-5.44 z"
   class="st2"
   id="path17"
   inkscape:connector-curvature="0"
   style="fill:#552f99;stroke:none;stroke-width:34;stroke-linecap:butt" />
				</g>
				<g
   id="shape11875-7"
   transform="translate(12.4409,-0.0636284)">
					<title
   id="title20">Sheet.11875</title>
					<path
   d="m 12.44,102.76 v 14.63 L 0,124.71 v -14.64 z"
   class="st1"
   id="path22"
   inkscape:connector-curvature="0"
   style="fill:#773adc;stroke:none;stroke-width:34;stroke-linecap:butt" />
				</g>
				<g
   id="shape11876-9"
   transform="translate(15.4961,-5.66293)">
					<title
   id="title25">Sheet.11876</title>
					<path
   d="m 3.15,116.41 c 1.73,-0.96 3.15,-0.2 3.15,1.81 a 6.92913,6.99913 0 0 1 -3.15,5.47 C 1.42,124.71 0,123.88 0,121.88 a 6.92913,6.99913 0 0 1 3.15,-5.47 z"
   class="st2"
   id="path27"
   inkscape:connector-curvature="0"
   style="fill:#552f99;stroke:none;stroke-width:34;stroke-linecap:butt" />
				</g>
				<g
   id="shape11877-11"
   transform="translate(0,-0.0636284)">
					<title
   id="title30">Sheet.11877</title>
					<path
   d="m 12.44,110.07 v 14.64 L 0,117.39 v -14.63 z"
   class="st3"
   id="path32"
   inkscape:connector-curvature="0"
   style="fill:#a67af4;stroke:none;stroke-width:34;stroke-linecap:butt" />
				</g>
				<g
   id="shape11878-13"
   transform="translate(44.252,-0.0636284)">
					<title
   id="title35">Sheet.11878</title>
					<path
   d="m 12.44,102.76 v 14.63 L 0,124.71 v -14.64 z"
   class="st1"
   id="path37"
   inkscape:connector-curvature="0"
   style="fill:#773adc;stroke:none;stroke-width:34;stroke-linecap:butt" />
				</g>
				<g
   id="shape11879-15"
   transform="translate(35.3228,-27.4557)">
					<title
   id="title40">Sheet.11879</title>
					<path
   d="m 0.9,114.88 a 13.1339,13.2665 0 0 1 7.46,8.3 l 0.63,-0.32 3.15,1.85 a 16.4094,16.5752 -180 0 0 -9.92,-12.92 1.70203,1.71922 -180 1 0 -1.29,3.18 z"
   class="st4"
   id="path42"
   inkscape:connector-curvature="0"
   style="fill:#32bedd;stroke:none;stroke-width:34;stroke-linecap:butt" />
				</g>
				<g
   id="shape11880-17"
   transform="translate(31.811)">
					<title
   id="title45">Sheet.11880</title>
					<path
   d="m 12.44,110.07 v 14.64 L 0,117.39 v -14.7 l 12.44,7.32 z"
   class="st3"
   id="path47"
   inkscape:connector-curvature="0"
   style="fill:#a67af4;stroke:none;stroke-width:34;stroke-linecap:butt" />
				</g>
				<g
   id="shape11881-19"
   transform="translate(35.4646,-5.88563)">
					<title
   id="title50">Sheet.11881</title>
					<path
   d="M 2.96,116.85 C 1.32,115.9 0,116.69 0,118.57 a 6.55118,6.61735 -180 0 0 2.96,5.18 c 1.64,0.96 2.96,0.2 2.96,-1.71 a 6.55118,6.61735 -180 0 0 -2.96,-5.19 z"
   class="st2"
   id="path52"
   inkscape:connector-curvature="0"
   style="fill:#552f99;stroke:none;stroke-width:34;stroke-linecap:butt" />
				</g>
				<g
   id="shape11882-21"
   transform="translate(18.4456,-5.79019)">
					<title
   id="title55">Sheet.11882</title>
					<path
   d="m 10.53,124.71 a 17.1969,17.3706 0 0 1 -10.01,-3.18 1.73228,1.74978 0 1 1 2.01,-2.83 13.7323,13.871 -180 0 0 15.15,0.57 1.7400497,1.757626 0 0 1 1.83,2.99 17.4488,17.6251 0 0 1 -8.98,2.45 z"
   class="st4"
   id="path57"
   inkscape:connector-curvature="0"
   style="fill:#32bedd;stroke:none;stroke-width:34;stroke-linecap:butt" />
				</g>
				<g
   id="shape11883-23"
   transform="translate(16.5039,-42.0584)">
					<title
   id="title60">Sheet.11883</title>
					<path
   d="M 24.85,117.39 12.47,124.71 0,117.39 l 12.47,-7.32 12.41,7.32 z"
   class="st5"
   id="path62"
   inkscape:connector-curvature="0"
   style="fill:#b796f9;stroke:none;stroke-width:34;stroke-linecap:butt" />
				</g>
				<g
   id="shape11884-25"
   transform="translate(9.07087,-27.4238)">
					<title
   id="title65">Sheet.11884</title>
					<path
   d="M 7.43,111.98 A 16.5354,16.7025 -180 0 0 0,124.71 l 3.53,-1.91 v 0.16 a 13.2283,13.362 0 0 1 3.9,-6.59 z"
   class="st4"
   id="path67"
   inkscape:connector-curvature="0"
   style="fill:#32bedd;stroke:none;stroke-width:34;stroke-linecap:butt" />
				</g>
				<g
   id="shape11885-27"
   transform="translate(0,-14.6982)">
					<title
   id="title70">Sheet.11885</title>
					<path
   d="m 56.69,117.39 -12.44,7.32 -12.44,-7.32 12.44,-7.32 z m -31.81,0 -12.44,7.32 L 0,117.39 12.44,110.07 Z"
   class="st5"
   id="path72"
   inkscape:connector-curvature="0"
   style="fill:#b796f9;stroke:none;stroke-width:34;stroke-linecap:butt" />
				</g>
				<g
   id="shape11886-29"
   transform="translate(16.5039,-27.4238)">
					<title
   id="title75">Sheet.11886</title>
					<path
   d="m 12.41,110.07 v 14.64 L 0,117.39 v -14.63 z"
   class="st3"
   id="path77"
   inkscape:connector-curvature="0"
   style="fill:#a67af4;stroke:none;stroke-width:34;stroke-linecap:butt" />
				</g>
			</g>
		</g>
	</g>
</svg>

<?xml version="1.0" encoding="UTF-8" standalone="no"?>
<!DOCTYPE svg PUBLIC "-//W3C//DTD SVG 1.1//EN" "http://www.w3.org/Graphics/SVG/1.1/DTD/svg11.dtd">
<!-- Generated by Microsoft Visio, SVG Export Azure Blockchain Service.svg Page-1 -->
<svg xmlns="http://www.w3.org/2000/svg" xmlns:xlink="http://www.w3.org/1999/xlink" xmlns:ev="http://www.w3.org/2001/xml-events"
		width="1.73185in" height="1.73206in" viewBox="0 0 124.693 124.709" xml:space="preserve" color-interpolation-filters="sRGB"
		class="st6">
	<style type="text/css">
	<![CDATA[
		.st1 {fill:#773adc;stroke:none;stroke-linecap:butt;stroke-width:34}
		.st2 {fill:#552f99;stroke:none;stroke-linecap:butt;stroke-width:34}
		.st3 {fill:#a67af4;stroke:none;stroke-linecap:butt;stroke-width:34}
		.st4 {fill:#32bedd;stroke:none;stroke-linecap:butt;stroke-width:34}
		.st5 {fill:#b796f9;stroke:none;stroke-linecap:butt;stroke-width:34}
		.st6 {fill:none;fill-rule:evenodd;font-size:12px;overflow:visible;stroke-linecap:square;stroke-miterlimit:3}
	]]>
	</style>

	<g>
		<title>Page-1</title>
		<g id="group11592-1" transform="translate(34,-34.0157)">
			<title>Azure Blockchain Service.11592</title>
			<g id="group11593-2">
				<title>Sheet.11593</title>
				<g id="shape11594-3" transform="translate(28.9134,-27.4238)">
					<title>Sheet.11594</title>
					<path d="M12.44 102.76 L12.44 117.39 L0 124.71 L0 110.07 L12.44 102.76 Z" class="st1"/>
				</g>
				<g id="shape11595-5" transform="translate(32.9134,-33.7867)">
					<title>Sheet.11595</title>
					<path d="M3.15 116.44 C4.88 115.42 6.3 116.21 6.3 118.22 A6.86614 6.9355 0 0 1 3.15 123.69 C1.42 124.71 0 123.91
								 0 121.88 A6.83465 6.90368 0 0 1 3.15 116.44 Z" class="st2"/>
				</g>
				<g id="shape11596-7" transform="translate(12.4409,-0.0636284)">
					<title>Sheet.11596</title>
					<path d="M12.44 102.76 L12.44 117.39 L0 124.71 L0 110.07 L12.44 102.76 Z" class="st1"/>
				</g>
				<g id="shape11597-9" transform="translate(15.4961,-5.66293)">
					<title>Sheet.11597</title>
					<path d="M3.15 116.41 C4.88 115.45 6.3 116.21 6.3 118.22 A6.92913 6.99913 0 0 1 3.15 123.69 C1.42 124.71 0 123.88
								 0 121.88 A6.92913 6.99913 0 0 1 3.15 116.41 Z" class="st2"/>
				</g>
				<g id="shape11598-11" transform="translate(0,-0.0636284)">
					<title>Sheet.11598</title>
					<path d="M12.44 110.07 L12.44 124.71 L0 117.39 L0 102.76 L12.44 110.07 Z" class="st3"/>
				</g>
				<g id="shape11599-13" transform="translate(44.252,-0.0636284)">
					<title>Sheet.11599</title>
					<path d="M12.44 102.76 L12.44 117.39 L0 124.71 L0 110.07 L12.44 102.76 Z" class="st1"/>
				</g>
				<g id="shape11600-15" transform="translate(35.3228,-27.4557)">
					<title>Sheet.11600</title>
					<path d="M0.9 114.88 A13.1339 13.2665 0 0 1 8.36 123.18 L8.99 122.86 L12.14 124.71 A16.4094 16.5752 -180 0 0
								 2.22 111.79 A1.70203 1.71922 -180 1 0 0.93 114.97 L0.9 114.88 Z" class="st4"/>
				</g>
				<g id="shape11601-17" transform="translate(31.811,0)">
					<title>Sheet.11601</title>
					<path d="M12.44 110.07 L12.44 124.71 L0 117.39 L0 102.69 L12.44 110.01 L12.44 110.07 Z" class="st3"/>
				</g>
				<g id="shape11602-19" transform="translate(35.4646,-5.88563)">
					<title>Sheet.11602</title>
					<path d="M2.96 116.85 C1.32 115.9 0 116.69 0 118.57 A6.55118 6.61735 -180 0 0 2.96 123.75 C4.6 124.71 5.92 123.95
								 5.92 122.04 A6.55118 6.61735 -180 0 0 2.96 116.85 Z" class="st2"/>
				</g>
				<g id="shape11603-21" transform="translate(18.4456,-5.79019)">
					<title>Sheet.11603</title>
					<path d="M10.53 124.71 A17.1969 17.3706 0 0 1 0.52 121.53 A1.73228 1.74978 0 1 1 2.53 118.7 A13.7323 13.871 -180
								 0 0 17.68 119.27 A1.73943 1.757 0 0 1 19.51 122.26 A17.4488 17.6251 0 0 1 10.53 124.71 Z"
							class="st4"/>
				</g>
				<g id="shape11604-23" transform="translate(16.5039,-42.0584)">
					<title>Sheet.11604</title>
					<path d="M24.85 117.39 L12.47 124.71 L0 117.39 L12.47 110.07 L24.88 117.39 L24.85 117.39 Z" class="st5"/>
				</g>
				<g id="shape11605-25" transform="translate(9.07087,-27.4238)">
					<title>Sheet.11605</title>
					<path d="M7.43 111.98 A16.5354 16.7025 -180 0 0 0 124.71 L3.53 122.8 L3.53 122.96 A13.2283 13.362 0 0 1 7.43
								 116.37 L7.43 111.98 Z" class="st4"/>
				</g>
				<g id="shape11606-27" transform="translate(0,-14.6982)">
					<title>Sheet.11606</title>
					<path d="M56.69 117.39 L44.25 124.71 L31.81 117.39 L44.25 110.07 L56.69 117.39 ZM24.88 117.39 L12.44 124.71 L0
								 117.39 L12.44 110.07 L24.88 117.39 Z" class="st5"/>
				</g>
				<g id="shape11607-29" transform="translate(16.5039,-27.4238)">
					<title>Sheet.11607</title>
					<path d="M12.41 110.07 L12.41 124.71 L0 117.39 L0 102.76 L12.41 110.07 Z" class="st3"/>
				</g>
			</g>
		</g>
	</g>
</svg>
